svgs/light/money-check-dollar-pen.svg

<svg xmlns="http://www.w3.org/2000/svg" viewBox="0 0 640 512"><!--! Font Awesome Pro 6.4.2 by @fontawesome - https://fontawesome.com License - https://fontawesome.com/license (Commercial License) Copyright 2023 Fonticons, Inc. --><path d="M512 96H64c-17.7 0-32 14.3-32 32V384c0 17.7 14.3 32 32 32H338.2l-8 32H64c-35.3 0-64-28.7-64-64V128C0 92.7 28.7 64 64 64H512c35.3 0 64 28.7 64 64v64c-10.9-.3-21.8 1.5-32 5.6V128c0-17.7-14.3-32-32-32zM256 304c0-8.8 7.2-16 16-16h96c8.8 0 16 7.2 16 16s-7.2 16-16 16H272c-8.8 0-16-7.2-16-16zm16-112H464c8.8 0 16 7.2 16 16s-7.2 16-16 16H272c-8.8 0-16-7.2-16-16s7.2-16 16-16zM144 144c8.8 0 16 7.2 16 16v9.6c5.9 1 19 3.5 24.1 4.9c8.5 2.3 13.6 11 11.3 19.6s-11 13.6-19.6 11.3c-4-1.1-17.7-3.7-22.1-4.4c-12.8-2-23.6-.4-30.9 2.9c-7.2 3.3-9.9 7.5-10.5 11c-.7 4.1-.1 6.2 .5 7.4c.6 1.4 2 3.1 5 5.1c6.7 4.6 17.1 7.8 31 12l.6 .2 0 0c12.3 3.7 27.9 8.4 39.5 16.9c6.3 4.5 12 10.6 15.6 18.8c3.6 8.3 4.4 17.4 2.7 27.2c-3 17.5-14.6 29.4-29.3 35.7c-5.6 2.4-11.6 4-17.9 4.9V352c0 8.8-7.2 16-16 16s-16-7.2-16-16v-9.6c-9.4-1.7-23.5-6.6-32.4-9.6l0 0 0 0 0 0 0 0c-1.8-.6-3.3-1.1-4.6-1.6c-8.4-2.8-12.9-11.9-10.1-20.2s11.9-12.9 20.2-10.1c1.9 .6 4 1.3 6.1 2.1l0 0 0 0c9.5 3.2 20.7 7 27.1 8.1c13.3 2.1 24 .8 31-2.2c6.5-2.8 9.5-6.7 10.3-11.8c.8-4.7 .2-7.3-.5-9c-.7-1.7-2.2-3.6-5.1-5.7c-6.5-4.8-16.7-8.1-30.5-12.3l-2-.6 0 0c-11.9-3.6-26.6-8-37.7-15.5c-6.2-4.2-12.2-10-15.9-17.9c-3.8-8.1-4.7-17.1-3.1-26.6c2.9-16.7 14.7-28.4 28.8-34.7c5.6-2.6 11.8-4.4 18.3-5.4V160c0-8.8 7.2-16 16-16zM582.8 264c-6.2-6.2-16.4-6.2-22.6 0l-24.8 24.8 40 40L600.2 304c6.2-6.2 6.2-16.4 0-22.6L582.8 264zM406.5 417.7c-2.1 2.1-3.5 4.6-4.2 7.4l-12.3 49 49-12.3c2.8-.7 5.4-2.2 7.4-4.2L552.7 351.4l-40-40L406.5 417.7zM537.5 241.4c18.7-18.7 49.1-18.7 67.9 0l17.4 17.4c18.7 18.7 18.7 49.1 0 67.9L469.1 480.3c-6.2 6.2-13.9 10.5-22.3 12.6l-74.9 18.7c-5.5 1.4-11.2-.2-15.2-4.2s-5.6-9.7-4.2-15.2l18.7-74.9c2.1-8.4 6.5-16.1 12.6-22.3L537.5 241.4z"/></svg>

<svg xmlns="http://www.w3.org/2000/svg" viewBox="0 0 640 512"><!--! Font Awesome Pro 6.1.1 by @fontawesome - https://fontawesome.com License - https://fontawesome.com/license (Commercial License) Copyright 2022 Fonticons, Inc. --><path d="M512 96H64C46.33 96 32 110.3 32 128V384C32 401.7 46.33 416 64 416H338.2L330.2 448H64C28.65 448 0 419.3 0 384V128C0 92.65 28.65 64 64 64H512C547.3 64 576 92.65 576 128V192C565.1 191.7 554.2 193.6 544 197.6V128C544 110.3 529.7 96 512 96V96zM256 304C256 295.2 263.2 288 272 288H368C376.8 288 384 295.2 384 304C384 312.8 376.8 320 368 320H272C263.2 320 256 312.8 256 304zM464 192C472.8 192 480 199.2 480 208C480 216.8 472.8 224 464 224H272C263.2 224 256 216.8 256 208C256 199.2 263.2 192 272 192H464zM143.1 144C152.8 144 159.1 151.2 159.1 160V169.6C165.9 170.6 178.1 173.2 184.1 174.5C192.7 176.8 197.7 185.6 195.5 194.1C193.2 202.7 184.4 207.7 175.9 205.5C171.9 204.4 158.2 201.7 153.8 201C140.9 199 130.1 200.6 122.9 203.9C115.7 207.2 112.1 211.4 112.4 214.1C111.7 219.1 112.3 221.2 112.9 222.4C113.5 223.8 114.8 225.5 117.8 227.5C124.6 232.1 134.9 235.3 148.8 239.5L149.4 239.7C161.7 243.4 177.3 248.1 188.9 256.5C195.1 261.1 200.9 267.1 204.5 275.3C208.1 283.6 208.8 292.8 207.2 302.5C204.1 319.1 192.6 331.9 177.9 338.2C172.3 340.6 166.3 342.2 160 343.1V352C160 360.8 152.8 368 144 368C135.2 368 128 360.8 128 352V342.4C118.6 340.6 104.5 335.8 95.55 332.7C93.79 332.1 92.22 331.6 90.95 331.2C82.56 328.4 78.03 319.3 80.82 310.9C83.61 302.6 92.67 298 101.1 300.8C102.1 301.5 105 302.2 107.2 302.9C116.7 306.1 127.9 309.9 134.3 310.1C147.6 313.1 158.3 311.8 165.3 308.8C171.8 306 174.7 302.1 175.6 297C176.4 292.4 175.8 289.7 175.1 288.1C174.4 286.4 172.9 284.5 170 282.4C163.5 277.6 153.3 274.3 139.6 270.1L137.5 269.5C125.7 265.9 110.9 261.5 99.87 254C93.65 249.8 87.7 244 83.93 236.1C80.1 228 79.2 219 80.85 209.5C83.73 192.8 95.57 181.2 109.7 174.8C115.3 172.2 121.5 170.4 128 169.3V160C128 151.2 135.2 144 144 144H143.1zM537.5 241.4C556.3 222.6 586.7 222.6 605.4 241.4L622.8 258.7C641.5 277.5 641.5 307.9 622.8 326.6L469.1 480.3C462.9 486.5 455.2 490.8 446.8 492.1L371.9 511.7C366.4 513 360.7 511.4 356.7 507.5C352.7 503.5 351.1 497.7 352.5 492.3L371.2 417.4C373.3 408.9 377.7 401.2 383.8 395.1L537.5 241.4zM582.8 264C576.5 257.8 566.4 257.8 560.2 264L535.3 288.8L575.3 328.8L600.2 303.1C606.4 297.7 606.4 287.6 600.2 281.4L582.8 264zM402.2 425.1L389.1 474.2L439 461.9C441.8 461.2 444.4 459.8 446.4 457.7L552.7 351.4L512.7 311.5L406.5 417.7C404.4 419.8 402.9 422.3 402.2 425.1L402.2 425.1z"/></svg>
